X:11502
T:Smash the Windows
R:Jig
B:Tuneworks Tunebook (https://www.tuneworks.co.uk/)
G:Tuneworks
Z:Jon Warbrick <jon.warbrick@googlemail.com>
M:6/8
L:1/8
K:D
|: "D"DED F2 A | d2 f ecA | "G"G2 B F2 A | "A"E2F GFE | 
"D"DED F2 A | d2 g ecA | "G"Bgf "A"edc | [1 "D"d3 A2 F :| [2 "D"d3 d2 a | 
|: "D"a2 f d2 f | A2 a agf | "A"g2 e c2 e | Ace gfe | 
"D"fed "G"fed | "D"agf "G"bag | "D"fed "A"Adc | [1 "D"d3 d2 f :| [2 "D"d3 d3 |]
